!!!COA:	Josquin des Prez
!!!CDT:	~1450-1521/08/27
!!!OPR:	Missa Pro Defunctis
!!!ONM:	5
!!!OTL:	Sanctus
!!!AGN:	Mass; Sanctus
!!!SCT:	NJE 4.4
!!!SCA:	New Josquin Edition 4.4
!!!voices:	6
!!!voices-OPR:	6
**kern	**kern	**kern	**kern	**kern	**kern
*staff6	*staff5	*staff4	*staff3	*staff2	*staff1
*Ivox	*Ivox	*Ivox	*Ivox	*Ivox	*Ivox
*I"Bassus	*I"Tenor3	*I"Tenor2	*I"Tenor1	*I"Altus	*I"Superius
*I'B	*I'T3	*I'T2	*I'T1	*I'A	*I'S
*>[A,B]	*>[A,B]	*>[A,B]	*>[A,B]	*>[A,B]	*>[A,B]
*>A	*>A	*>A	*>A	*>A	*>A
*clefF4	*clefGv2	*clefGv2	*clefGv2	*clefGv2	*clefG2
*k[]	*k[]	*k[]	*k[]	*k[]	*k[]
*M2/1	*M2/1	*M2/1	*M2/1	*M2/1	*M2/1
*met(C|)	*met(C|)	*met(C|)	*met(C|)	*met(C|)	*met(C|)
!!section: Sanctus and Osanna
!!!OMD: Sanctus and Osanna
!	!LO:TX:Z=16:t=Canon in diapente [at the upper fifth]; text&colon; "Circumdederunt me"	!	!	!	!
=1-	=1-	=1-	=1-	=1-	=1-
0A	0r	0r	0r	0A	[0a
=2	=2	=2	=2	=2	=2
1F	0r	0r	0A	1c	0a]
1D	.	.	.	1d	.
=3	=3	=3	=3	=3	=3
0A	0r	0r	1.c	1e	[0a
.	.	.	.	[1A	.
.	.	.	4B\	.	.
.	.	.	4A/	.	.
=4	=4	=4	=4	=4	=4
0AA	0r	0r	1e	2A/]	0a]
.	.	.	.	2B\	.
.	.	.	1A	1c	.
=5	=5	=5	=5	=5	=5
0D	0r	0r	2.A/	2.F/	[0a
.	.	.	4G/	4G/	.
.	.	.	4F/	4A/	.
.	.	.	4E/	4D/	.
.	.	.	[2F/	[2d\	.
=6	=6	=6	=6	=6	=6
0AA	0r	0r	2F/]	2d\]	0a]
.	.	.	4E/	4c\	.
.	.	.	4D/	4B\	.
.	.	.	1E	[1c	.
=7	=7	=7	=7	=7	=7
2.A\	0F	0r	1r	2c\]	[0a
.	.	.	.	2F/	.
4G\	.	.	.	.	.
4F\	.	.	2.A/	1c	.
4E\	.	.	.	.	.
[2F\	.	.	.	.	.
.	.	.	4G/	.	.
=8	=8	=8	=8	=8	=8
2F\]	1F	0r	4F/	2.A/	0a]
.	.	.	4E/	.	.
2D\	.	.	2.F/	.	.
.	.	.	.	4B\	.
1A	1F	.	.	2c\	.
.	.	.	4E/	.	.
.	.	.	2D/	2d\	.
=9	=9	=9	=9	=9	=9
0r	1G	0c	1.C	0e	0r
.	1E	.	.	.	.
.	.	.	[2c\	.	.
=10	=10	=10	=10	=10	=10
2.A\	2.F/	1c	4c\]	1c	0r
.	.	.	4B\	.	.
.	.	.	2.A/	.	.
4G\	4G/	.	.	.	.
4F\	4A/	1c	.	[1f	.
4E\	4B-i\	.	4G/	.	.
[2F\	[2A/	.	4F/	.	.
.	.	.	4E/	.	.
=11	=11	=11	=11	=11	=11
2F\]	2A/]	1d	1D	1f]	0r
2D\	4G/	.	.	.	.
.	4F/	.	.	.	.
1E	1G	1B	2r	[1e	.
.	.	.	2G/	.	.
=12	=12	=12	=12	=12	=12
1AA	[0A	2.c\	2E/	1e]	0a
.	.	.	2.A/	.	.
.	.	4d\	.	.	.
2r	.	4e\	.	1c	.
.	.	4f\	4G/	.	.
[2A\	.	[2e\	[2c\	.	.
=13	=13	=13	=13	=13	=13
4A\]	0A]	2e\]	4c\]	0f	1a
4G\	.	.	4B\	.	.
4F\	.	4d\	4A/	.	.
4E\	.	4c\	4G/	.	.
2F\	.	1d	2.A/	.	1a
2D\	.	.	.	.	.
.	.	.	4B\	.	.
=14	=14	=14	=14	=14	=14
0A	0r	[0e	2.c\	2.e\	0a
.	.	.	4B\	4d\	.
.	.	.	4A/	4c\	.
.	.	.	4G/	4B\	.
.	.	.	[2A/	[2c\	.
=15	=15	=15	=15	=15	=15
0AA	0r	0e]	2A/]	4c\]	1a
.	.	.	.	4A/	.
.	.	.	4G/	1d	.
.	.	.	4F/	.	.
.	.	.	1E	.	[1a
.	.	.	.	2c#i\	.
=16	=16	=16	=16	=16	=16
1D	1r	0r	1F	1d	1a]
2C/	[1A	.	2E/	2r	1a
[2D\	.	.	[2F/	[2d\	.
=17	=17	=17	=17	=17	=17
4D\]	1A]	0r	4F/]	4d\]	0a
4C/	.	.	4D/	4e\	.
4D\	.	.	1d	4f\	.
8C/L	.	.	.	4d\	.
8BB/J	.	.	.	.	.
1AA	1A	.	.	2e\	.
.	.	.	2c\	[2f\	.
=18	=18	=18	=18	=18	=18
2r	1B	1r	2.d\	4f\]	1r
.	.	.	.	4d\	.
2GG/	.	.	.	2.g\	.
.	.	.	4B\	.	.
[1C	1G	[1e	4c\	.	1g
.	.	.	4d\	4f\	.
.	.	.	[2e\	4e\	.
.	.	.	.	4d\	.
=19	=19	=19	=19	=19	=19
1C]	0A	1e]	4e\]	2.c\	1.cc
.	.	.	4d\	.	.
.	.	.	4c\	.	.
.	.	.	4B\	4d\	.
1AA	.	1e	1c	1e	.
.	.	.	.	.	2b\
=20	=20	=20	=20	=20	=20
1D	0F	1f	1d	0A	2.a/
.	.	.	.	.	4g/
1F	.	1B	2r	.	4f/
.	.	.	.	.	4e/
.	.	.	2D/	.	[2a/
=21	=21	=21	=21	=21	=21
0E	0r	0e	2.G/	0B	2a/]
.	.	.	.	.	4g#i/
.	.	.	4A/	.	4f#i/
.	.	.	1B	.	1g#i
=22	=22	=22	=22	=22	=22
1r	0r	0c	0A	1r	0a
1A	.	.	.	1c	.
=23	=23	=23	=23	=23	=23
1G	0r	0r	0r	1d	0r
1E	.	.	.	1e	.
=24	=24	=24	=24	=24	=24
1r	1.A	0r	0c	1.e	0r
1A	.	.	.	.	.
.	2A/	.	.	4d\	.
.	.	.	.	4c\	.
=25	=25	=25	=25	=25	=25
2.G\	1B	0r	1d	0g	0r
4F\	.	.	.	.	.
2E\	1G	.	1e	.	.
2D\	.	.	.	.	.
=26	=26	=26	=26	=26	=26
2C/	0A	1.e	2.e\	1r	0r
2BB/	.	.	.	.	.
.	.	.	4d\	.	.
1AA	.	.	4c\	[1c	.
.	.	.	4B\	.	.
.	.	2e\	[2A/	.	.
=27	=27	=27	=27	=27	=27
2r	0F	1f	2A/]	2c\]	0f
2A\	.	.	2.D/	2d\	.
2A\	.	1d	.	1f	.
.	.	.	4E/	.	.
2A\	.	.	2F/	.	.
=28	=28	=28	=28	=28	=28
1.c	0r	0e	2C/	1e	1g
.	.	.	2c\	.	.
.	.	.	2.A/	1c	1a
2B\	.	.	.	.	.
.	.	.	4B\	.	.
=29	=29	=29	=29	=29	=29
2.A\	0F	0c	1.c	1r	1a
4G\	.	.	.	.	.
2F\	.	.	.	[1A	[1a
2E\	.	.	2c\	.	.
=30	=30	=30	=30	=30	=30
1.D	1F	0r	1d	1A]	1a]
.	1D	.	1d	1A	1a
4C/	.	.	.	.	.
4BB/	.	.	.	.	.
=31	=31	=31	=31	=31	=31
1AA	1C	0c	1e	0c	1a
[1A	[1F	.	2r	.	1a
.	.	.	2c\	.	.
=32	=32	=32	=32	=32	=32
2A\]	1F]	1c	2.A/	2.F/	0a
2G\	.	.	.	.	.
.	.	.	4B\	4G/	.
2.F\	1F	1A	2c\	2A/	.
.	.	.	2d\	2D/	.
4E\	.	.	.	.	.
=33	=33	=33	=33	=33	=33
1G	0r	1G	1B-i	1d	1b-i
1C	.	[1c	1c	2.c\	2a/
.	.	.	.	.	2g/
.	.	.	.	4d\	.
=34	=34	=34	=34	=34	=34
1r	0r	1c]	1C	2e\	1a
.	.	.	.	1f	.
1C	.	1c	2.c\	.	1g
.	.	.	.	2e\	.
.	.	.	4B\	.	.
=35	=35	=35	=35	=35	=35
2.c\	0F	0r	2.A/	1f	[0f
4B\	.	.	4G/	.	.
2A\	.	.	2F/	1c	.
2G\	.	.	2E/	.	.
=36	=36	=36	=36	=36	=36
2F\	1F	0r	4D/	0d	0f]
.	.	.	4C/	.	.
2E\	.	.	1c	.	.
1D	1F	.	.	.	.
.	.	.	2B\	.	.
=37	=37	=37	=37	=37	=37
0C	0G	0c	0c	0e	0r
=38	=38	=38	=38	=38	=38
0r	1A	1c	2.F/	0r	0f
.	.	.	4G/	.	.
.	1F	1c	1A	.	.
=39	=39	=39	=39	=39	=39
1r	0B-i	0d	0G	1r	0g
1G	.	.	.	1d	.
=40	=40	=40	=40	=40	=40
2.c\	[0Al	1e	1r	1c	1.a
4B\	.	.	.	.	.
2.A\	.	1c	1F	1c	.
.	.	.	.	.	2a/
4G\	.	.	.	.	.
=41	=41	=41	=41	=41	=41
2F\	0A_	0f	2F/	2A/	2a/
2E\	.	.	2G/	2A/	2a/
1D	.	.	2A/	1d	2.a/
.	.	.	2B\	.	.
.	.	.	.	.	4g/
=42	=42	=42	=42	=42	=42
[0AAl	0A_	[0el	2c\	[0cl	[0al
.	.	.	1A	.	.
.	.	.	4G/	.	.
.	.	.	4F/	.	.
=43	=43	=43	=43	=43	=43
0AA]	0A]	0e]	0El	0c]	0a]
!!LO:LB:i:g=z
=44||	=44||	=44||	=44||	=44||	=44||
*>B	*>B	*>B	*>B	*>B	*>B
*clefF4	*clefGv2	*clefGv2	*clefGv2	*clefGv2	*clefG2
*k[]	*k[]	*k[]	*k[]	*k[]	*k[]
*M2/1	*M2/1	*M2/1	*M2/1	*M2/1	*M2/1
*met(C|)	*met(C|)	*met(C|)	*met(C|)	*met(C|)	*met(C|)
!!section: Benedictus and Osanna
!!!OMD: Benedictus and Osanna
0AA	0r	0r	[0A	0e	0r
=45	=45	=45	=45	=45	=45
1C	0r	0r	0A]	1e	0r
[1D	.	.	.	[1f	.
=46	=46	=46	=46	=46	=46
2D\]	0r	0r	1B-	2f\]	0r
2GG/	.	.	.	2e\	.
1GG	.	.	1B-i	[1d	.
=47	=47	=47	=47	=47	=47
0D	0r	0r	2.A/	2d\]	[0a
.	.	.	.	4c\	.
.	.	.	4G/	4B\	.
.	.	.	4F/	2A/	.
.	.	.	4E/	.	.
.	.	.	[2A/	2d\	.
=48	=48	=48	=48	=48	=48
0F	0r	0r	4A/]	2c\	0a]
.	.	.	4G/	.	.
.	.	.	4F/	2.d\	.
.	.	.	4E/	.	.
.	.	.	2D/	.	.
.	.	.	.	8c\L	.
.	.	.	.	8B\J	.
.	.	.	[2d\	2A/	.
=49	=49	=49	=49	=49	=49
0G	0r	0r	4d\]	2G/	0b-i
.	.	.	4c\	.	.
.	.	.	4B-i\	2.g\	.
.	.	.	4A/	.	.
.	.	.	4G/	.	.
.	.	.	4A/	4f\	.
.	.	.	4B-i\	[2d\	.
.	.	.	4c\	.	.
=50	=50	=50	=50	=50	=50
0D	0r	0r	2.d\	4d\]	1a
.	.	.	.	4e\	.
.	.	.	.	2.f\	.
.	.	.	8c\L	.	.
.	.	.	8B-i\J	.	.
.	.	.	2A/	.	[1a
.	.	.	.	4e\	.
.	.	.	[2F/	2d\	.
=51	=51	=51	=51	=51	=51
0r	0r	0r	4F/]	2c\	2a/]
.	.	.	4E/	.	.
.	.	.	2D/	1f	4g/
.	.	.	.	.	4f/
.	.	.	1C	.	1g
.	.	.	.	2e\	.
=52	=52	=52	=52	=52	=52
[0D	0r	0r	2r	1f	0r
.	.	.	2A/	.	.
.	.	.	[1B-i	1F	.
=53	=53	=53	=53	=53	=53
0D]	0r	0r	2B-\]	2r	0r
.	.	.	2A/	2A/	.
.	.	.	1F	[1B-i	.
=54	=54	=54	=54	=54	=54
0E-	0r	0r	1G	2B-\]	0r
.	.	.	.	8B-i/L	.
.	.	.	.	8A/	.
.	.	.	.	8G/	.
.	.	.	.	8F/J	.
.	.	.	[1B-i	1G	.
=55	=55	=55	=55	=55	=55
1D	0r	0r	2B-\]	1F	1r
.	.	.	4A/	.	.
.	.	.	4G/	.	.
[1D	.	.	2A/	[1f	1a
.	.	.	2D/	.	.
=56	=56	=56	=56	=56	=56
2D\]	0r	0r	1d	2f\]	1b-i
2BB-i/	.	.	.	4e\	.
.	.	.	.	4d\	.
1C	.	.	1c	1e	2g/
.	.	.	.	.	[2a/
=57	=57	=57	=57	=57	=57
1.D	0F	0r	0A	2d\	4a/]
.	.	.	.	.	4g/
.	.	.	.	2.f\	4f/
.	.	.	.	.	4e/
.	.	.	.	.	2d/
.	.	.	.	4e\	.
[2F\	.	.	.	4d\	[2a/
.	.	.	.	4c\	.
=58	=58	=58	=58	=58	=58
4F\]	1F	0r	0r	2d\	4a/]
4E\	.	.	.	.	4g/
4D\	.	.	.	1c	4f/
4C/	.	.	.	.	4e/
1D	1F	.	.	.	2f/
.	.	.	.	2B\	2f/
=59	=59	=59	=59	=59	=59
0C	1G	0r	0r	1c	0e
.	1E	.	.	2r	.
.	.	.	.	2G/	.
=60	=60	=60	=60	=60	=60
0r	1F	0c	2r	1A	0r
.	.	.	2F/	.	.
.	1G	.	2E/	2G/	.
.	.	.	2C/	[2g\	.
=61	=61	=61	=61	=61	=61
0r	0A	1c	2.F/	2g\]	0r
.	.	.	.	4f\	.
.	.	.	4G/	4e\	.
.	.	1c	2A/	1f	.
.	.	.	2F/	.	.
=62	=62	=62	=62	=62	=62
0r	0G	1d	4B-i\	1g	0d
.	.	.	4A/	.	.
.	.	.	4G/	.	.
.	.	.	4F/	.	.
.	.	1B-i	1G	2r	.
.	.	.	.	2G/	.
=63	=63	=63	=63	=63	=63
1r	0r	1c	0F	0A	0f
2r	.	1d	.	.	.
2F\	.	.	.	.	.
=64	=64	=64	=64	=64	=64
2E\	0r	0e	2r	0G	0g
2C/	.	.	2c\	.	.
2.E\	.	.	2G/	.	.
.	.	.	[2c\	.	.
4F\	.	.	.	.	.
=65	=65	=65	=65	=65	=65
0G	0r	0d	2c\]	1r	1g
.	.	.	4B\	.	.
.	.	.	4A/	.	.
.	.	.	1B	1d	1g
=66	=66	=66	=66	=66	=66
0F	0F	0r	1c	1f	[0a
.	.	.	1A	2c\	.
.	.	.	.	[2f\	.
=67	=67	=67	=67	=67	=67
1r	1F	0r	0r	4f\]	0a]
.	.	.	.	4e\	.
.	.	.	.	2d\	.
2r	1F	.	.	2c\	.
2F\	.	.	.	2d\	.
=68	=68	=68	=68	=68	=68
2E\	1G	0r	2r	0e	1g
2.C/	.	.	2c\	.	.
.	1E	.	2.c\	.	[1a
4BB/	.	.	.	.	.
4AA/	.	.	.	.	.
4GG/	.	.	4B\	.	.
=69	=69	=69	=69	=69	=69
2FF/	1F	0c	2A/	1r	2a/]
2F\	.	.	2F/	.	4g/
.	.	.	.	.	4a/
2E\	1G	.	1c	1e	[1g
2C/	.	.	.	.	.
=70	=70	=70	=70	=70	=70
2.F\	0A	1c	0r	0f	2g/]
.	.	.	.	.	4f/
4G\	.	.	.	.	4e/
2A\	.	1c	.	.	1f
2F\	.	.	.	.	.
=71	=71	=71	=71	=71	=71
2.B-i\	[0Gl	1d	2r	1d	[0gl
.	.	.	2.G/	.	.
4A\	.	.	.	.	.
2.G\	.	1B-i	.	[1e	.
.	.	.	4F/	.	.
.	.	.	4E/	.	.
4F\	.	.	4D/	.	.
=72	=72	=72	=72	=72	=72
2E\	0G_	1c	2C/	1e]	0g_
2C/	.	.	1c	.	.
1G	.	1d	.	1d	.
.	.	.	2B\	.	.
=73	=73	=73	=73	=73	=73
0C	0G_	0e	2c\	0c	0g_
.	.	.	4C/	.	.
.	.	.	4D/	.	.
.	.	.	4E/	.	.
.	.	.	4F/	.	.
.	.	.	[2G/	.	.
=74	=74	=74	=74	=74	=74
[0GGl	0G_	[0dl	2G/]	[0Bl	0g_
.	.	.	2D/	.	.
.	.	.	1G	.	.
=75	=75	=75	=75	=75	=75
0GG]	0G]	0d]	0Dl	0B]	0g]
==	==	==	==	==	==
*-	*-	*-	*-	*-	*-
!!!RDF**kern: l=long note in original notation
!!!RDF**kern: i=editorial accidental
!!!RDF**kern: V=start of tuplet marker
!!!RDF**kern: Z=end of tuplet marker
!!!ENC:	Will Watson 08/06/2011
!!!END:	2012/01/21/
!!!EED:	Jesse Rodin
!!!EEV:	2012/06/24/
!!attribution-level@Jos: 5 (doubtful)
!!!ONB:	Translated from MusicXML and edited on 2012/06/24/ by Craig Sapp
!!muse2ps: T^@{OPR}^u^@{ONM}{. }@{OTL}^C^@{COA}?\n@{SCT}^i2I150v95,95,95,95,95,130Q16
